X:14568
T:Rosin the Beau
M:6/8
L:1/8
K:G
GFG BAG|d3 efg|dBG GAB|E3 E2D|GFG BAG|d3 efg|dBG ABA|G6||dBd def|g2e g2e
|dBG GAB|E3 E2D|GFG BAG|d3 efg|dBG ABA|G6||
